svg/fluentui-system-icons/ic_fluent_projection_screen_24_regular.svg

<svg width="24" height="24" viewBox="0 0 24 24" fill="none" xmlns="http://www.w3.org/2000/svg">
<path d="M3.5 3C2.67157 3 2 3.67157 2 4.5C2 5.15311 2.4174 5.70873 3 5.91465V13.25C3 15.3211 4.67893 17 6.75 17H11.25V19.5H7.75C7.33579 19.5 7 19.8358 7 20.25C7 20.6642 7.33579 21 7.75 21H16.25C16.6642 21 17 20.6642 17 20.25C17 19.8358 16.6642 19.5 16.25 19.5H12.75V17H17.25C19.3211 17 21 15.3211 21 13.25V5.91465C21.5826 5.70873 22 5.15311 22 4.5C22 3.67157 21.3284 3 20.5 3H3.5ZM4.5 6H19.5V13.25C19.5 14.4926 18.4926 15.5 17.25 15.5H6.75C5.50736 15.5 4.5 14.4926 4.5 13.25V6Z" fill="#212121"/>
</svg>

<svg xmlns="http://www.w3.org/2000/svg" width="24" height="24"><path d="M3.5 3A1.5 1.5 0 0 0 3 5.915v7.335A3.75 3.75 0 0 0 6.75 17h4.5v2.5h-3.5a.75.75 0 0 0 0 1.5h8.5a.75.75 0 0 0 0-1.5h-3.5V17h4.5A3.75 3.75 0 0 0 21 13.25V5.915A1.5 1.5 0 0 0 20.5 3h-17Zm1 3h15v7.25a2.25 2.25 0 0 1-2.25 2.25H6.75a2.25 2.25 0 0 1-2.25-2.25V6Z"/></svg>
